X:256
T:Pearl Wedding
R:hp 32 reel
C:Willie Taylor
S:'Hard Core English' page 45C
O:England
A:Northumbria
B:Hard Core English ISBN 978 085418 201 5
Z:PJHeadford 2008
M:4/4
L:1/8
Q:1/4=180
K:D
|:E2|D2DE DFAd|f2fe dBBd|FAAB AFAd|ceef ecAF|
D2DE DFAd|f2fe dBBd|FAAB AFAd|cdec d2:|
|:fg|a2ag f2ed|BddB AFEF|DFAd fafd|ceef e2fg|
a2ag f2ed|BddB AFEF|DFAD FAAd|cdec d2:|]

